X:1
T: An English Air
N:
C:
S: Play  4  times
A:
O:
R:
M:4/4
K:C
I:speed 200
%W:             A1
% voice 1 (1 lines, 22 notes)
K:C
M:4/4
L:1/16
c2 d2 |e4 g4 e4 c4 |d2 c2 B2 A2 G4 c2 d2 |e4 e4 e2 d2 e2 c2 |g12 c2 d2 |
%W: A2
% voice 1 (1 lines, 20 notes)
e4 g4 e4 c4 |d2 c2 B2 A2 G4 c2 d2 |e4 e4 e2 d2 e2 c2 |g12 B2 c2 |
%W: B1
% voice 1 (1 lines, 36 notes)
d4 d4 d4 e4 |d2 c2 B2 A2 G2 A2 B2 c2 |d4 e4 f4 e4 |d12 e2 f2 |g6 a2 g6 a2 |g6 a2 g4 a4 |g2 f2 e2 f2 d6 c2 |c12 B2 c2 |
%W: B2
% voice 1 (1 lines, 34 notes)
d4 d4 d4 e4 |d2 c2 B2 A2 G2 A2 B2 c2 |d4 e4 f4 e4 |d12 e2 f2 |g6 a2 g6 a2 |g6 a2 g4 a4 |g2 f2 e2 f2 d6 c2 |c12 ||
